icons/svg/human-male-female.svg

﻿<?xml version="1.0" encoding="utf-8"?>
<!DOCTYPE svg PUBLIC "-//W3C//DTD SVG 1.1//EN" "http://www.w3.org/Graphics/SVG/1.1/DTD/svg11.dtd">
<svg xmlns="http://www.w3.org/2000/svg" xmlns:xlink="http://www.w3.org/1999/xlink" version="1.1" baseProfile="full" width="24" height="24" viewBox="0 0 24.00 24.00" enable-background="new 0 0 24.00 24.00" xml:space="preserve">
	<path fill="#000000" fill-opacity="1" stroke-linejoin="round" d="M 7.5,2C 8.60457,2 9.5,2.89543 9.5,4C 9.5,5.10457 8.60457,6 7.5,6C 6.39543,6 5.5,5.10457 5.5,4C 5.5,2.89543 6.39543,2 7.5,2 Z M 6,7.00001L 9,7.00001C 10.1046,7.00001 11,7.89544 11,9.00001L 11,14.5L 9.49999,14.5L 9.5,22L 5.5,22L 5.49999,14.5L 4,14.5L 4,9.00001C 4,7.89544 4.89543,7.00001 6,7.00001 Z M 16.5,2.00001C 17.6046,2.00001 18.5,2.89544 18.5,4.00001C 18.5,5.10457 17.6046,6.00001 16.5,6.00001C 15.3954,6.00001 14.5,5.10457 14.5,4.00001C 14.5,2.89544 15.3954,2.00001 16.5,2.00001 Z M 15,22L 15,16L 12,16L 14.5878,8.41201C 14.8389,7.59439 15.6001,7 16.5,7C 17.3999,7 18.161,7.59439 18.4122,8.412L 21,16L 18,16L 18,22L 15,22 Z "/>
</svg>

<svg xmlns="http://www.w3.org/2000/svg" version="1.1" baseProfile="full" width="24" height="24" viewBox="0 0 24.00 24.00" xml:space="preserve"><path fill="#000" fill-opacity="1" stroke-linejoin="round" d="M7.5 2c1.105 0 2 .895 2 2s-.895 2-2 2-2-.895-2-2 .895-2 2-2zM6 7h3c1.105 0 2 .895 2 2v5.5H9.5V22h-4v-7.5H4V9c0-1.105.895-2 2-2zm10.5-5c1.105 0 2 .895 2 2s-.895 2-2 2-2-.895-2-2 .895-2 2-2zM15 22v-6h-3l2.588-7.588C14.838 7.594 15.6 7 16.5 7c.9 0 1.66.594 1.912 1.412L21 16h-3v6h-3z"/></svg>
